icons/mobile/24/svg/save-24.svg

<svg width="24" height="24" viewBox="0 0 24 24" fill="none" xmlns="http://www.w3.org/2000/svg">
<path fill-rule="evenodd" clip-rule="evenodd" d="M7.62988 3.36476C10.5289 2.87676 13.5193 2.87862 16.4053 3.37062C17.909 3.62669 18.9988 4.92387 18.999 6.45363V18.6216C18.999 19.4706 18.562 20.2355 17.832 20.6675C17.1021 21.0984 16.2215 21.1096 15.4775 20.7017L12.0596 18.8179C12.0228 18.7972 11.9763 18.7972 11.9395 18.8179L8.51953 20.7017C8.1596 20.8996 7.76694 20.9995 7.37402 20.9995C6.9581 20.9995 6.54294 20.8894 6.16699 20.6675C5.43699 20.2355 5 19.4706 5 18.6216V6.45265C5.00017 4.92183 6.10604 3.62277 7.62988 3.36476ZM11.999 4.74855C10.639 4.74855 9.26592 4.86432 7.91992 5.09132C7.24111 5.20535 6.7492 5.77785 6.74902 6.45265V18.6216C6.74902 18.9431 6.96345 19.1045 7.05566 19.1597C7.14863 19.2137 7.39694 19.3242 7.6748 19.1694L11.0947 17.2847C11.6617 16.9737 12.3383 16.9727 12.9043 17.2847L16.3232 19.1694C16.6031 19.3241 16.8494 19.2137 16.9434 19.1597C17.0356 19.1045 17.25 18.9431 17.25 18.6216L17.249 6.45363C17.2488 5.77992 16.77 5.20834 16.1104 5.0962C14.7584 4.86621 13.374 4.74855 11.999 4.74855Z" fill="black"/>
</svg>

<!-- This Source Code Form is subject to the terms of the Mozilla Public
   - License, v. 2.0. If a copy of the MPL was not distributed with this
   - file, You can obtain one at http://mozilla.org/MPL/2.0/. -->
<svg xmlns="http://www.w3.org/2000/svg" width="24" height="24" fill="none" viewBox="0 0 24 24">
    <path fill="#000" fill-rule="evenodd" d="M7.63 3.365a26.4 26.4 0 0 1 8.775.006A3.115 3.115 0 0 1 19 6.454v12.168c0 .849-.437 1.613-1.167 2.046a2.36 2.36 0 0 1-2.355.034l-3.417-1.884a.12.12 0 0 0-.12 0l-3.42 1.884a2.37 2.37 0 0 1-2.353-.034A2.36 2.36 0 0 1 5 18.622V6.452c0-1.53 1.106-2.83 2.63-3.087m4.369 1.384c-1.36 0-2.733.115-4.08.342a1.386 1.386 0 0 0-1.17 1.362v12.169c0 .321.214.483.307.538a.62.62 0 0 0 .619.01l3.42-1.885a1.87 1.87 0 0 1 1.81 0l3.418 1.884a.62.62 0 0 0 .62-.01.62.62 0 0 0 .307-.537l-.001-12.168a1.37 1.37 0 0 0-1.139-1.358A24.6 24.6 0 0 0 12 4.75" clip-rule="evenodd" />
</svg>
